X:87
T:Buck of the Cabrach, The
R:Reel
C:William Marshall
B:The Athole Collection
M:C|
L:1/8
K:D
A|F<DAF BGAF|DAdf e2 EA|F<DAF BGAF|Adce d2D:|
g|fg/a/ fd bgaf|fg/a/ fd b2eg|fg/a/ fd bgag|fdec d2Dg|fg/a/ fd bgaf|
fg/a/ fd b2eg|fdge afbg|fdec d2D||

